Yaru++/mimetypes/16/text-x-php.svg

<svg id="svg4" height="16" width="16" xmlns="http://www.w3.org/2000/svg">
  <path id="text4233" d="m7.8212593 3.903052c-.358846 0-.6990013.04116-1.0204773.123408-.3140186.08225-.5981321.190686-.8523217.325244l.2915672.807577c.4710014-.254185.9533307-.381297 1.4467609-.381297.3887625 0 .6841433.100767.8860027.302642.2018367.19439.3026417.448591.3026417.762591 0 .19439-.044752.373927-.1344822.538386-.082247.164493-.1906866.321502-.3252444.471028-.1345578.149525-.2765238.2989-.4260418.448414-.1495254.142041-.2917183.299088-.4262798.471028-.1345578.164455-.2465886.343991-.336319.538386-.082247.19439-.1234076.41101-.1234076.650247 0 .164493.014741.321503.044752.471028h.8746973c-.00756-.03742-.010961-.07832-.010961-.123181v-.123407c0-.246703.048607-.467415.1457835-.661795.097176-.201874.2168799-.384975.3589215-.549453.1420417-.171939.2988242-.336395.470786-.4934.1719392-.157009.3289863-.321465.4710279-.4934.1420417-.171939.2617452-.355066.3589217-.549449.097176-.201875.1457835-.429977.1457835-.684166 0-.201875-.033639-.411067-.100805-.627879-.059795-.224288-.1720903-.426314-.3365457-.605744-.1644553-.179423-.3849335-.325207-.6615557-.437347-.2691534-.119628-.6169475-.179461-1.0430875-.179461zm-2.976755 2.097246-4.8445043 2.052267v.897066l4.8445043 2.052264.2915671-.86363-3.9811119-1.637286 3.9811119-1.637289zm6.3107497 0-.291567.863392 3.981112 1.637289-3.981112 1.637286.291567.86363 4.844746-2.052264v-.897066zm-3.5134555 4.496892c-.231772 0-.4148803.07469-.5494532.224213-.1345578.149525-.2018367.325206-.2018367.527077 0 .201874.067241.377555.2018367.527081.1345578.149525.3176849.224439.5494532.224439.231772 0 .4151184-.07491.5496913-.224439.1345578-.149526.2018367-.325207.2018367-.527081 0-.201837-.067241-.377556-.2018367-.527077-.1345578-.149526-.3179495-.224213-.5496913-.224213z" fill="#808080"/>
</svg>

<?xml version="1.0" encoding="UTF-8" standalone="no"?>
<svg
   xmlns:dc="http://purl.org/dc/elements/1.1/"
   xmlns:cc="http://creativecommons.org/ns#"
   xmlns:rdf="http://www.w3.org/1999/02/22-rdf-syntax-ns#"
   xmlns:svg="http://www.w3.org/2000/svg"
   xmlns="http://www.w3.org/2000/svg"
   xmlns:sodipodi="http://sodipodi.sourceforge.net/DTD/sodipodi-0.dtd"
   xmlns:inkscape="http://www.inkscape.org/namespaces/inkscape"
   width="16"
   height="16"
   version="1.1"
   id="svg4"
   sodipodi:docname="application-apk.svg"
   inkscape:version="0.92.4 (5da689c313, 2019-01-14)">
  <metadata
     id="metadata10">
    <rdf:RDF>
      <cc:Work
         rdf:about="">
        <dc:format>image/svg+xml</dc:format>
        <dc:type
           rdf:resource="http://purl.org/dc/dcmitype/StillImage" />
        <dc:title></dc:title>
      </cc:Work>
    </rdf:RDF>
  </metadata>
  <defs
     id="defs8" />
  <sodipodi:namedview
     pagecolor="#ffffff"
     bordercolor="#666666"
     borderopacity="1"
     objecttolerance="10"
     gridtolerance="10"
     guidetolerance="10"
     inkscape:pageopacity="0"
     inkscape:pageshadow="2"
     inkscape:window-width="793"
     inkscape:window-height="480"
     id="namedview6"
     showgrid="false"
     inkscape:zoom="14.75"
     inkscape:cx="8"
     inkscape:cy="8"
     inkscape:window-x="0"
     inkscape:window-y="27"
     inkscape:window-maximized="0"
     inkscape:current-layer="svg4" />
  <path
     style="font-style:normal;font-variant:normal;font-weight:normal;font-stretch:normal;font-size:6.00915384px;line-height:0%;font-family:Ubuntu;-inkscape-font-specification:'Ubuntu, Normal';text-align:start;letter-spacing:0px;word-spacing:0px;writing-mode:lr-tb;text-anchor:start;display:inline;fill:#808080;fill-opacity:1;stroke:none;stroke-width:0.125px;stroke-linecap:butt;stroke-linejoin:miter;stroke-opacity:1;enable-background:new"
     d="m 7.8212593,3.903052 c -0.358846,0 -0.6990013,0.04116 -1.0204773,0.123408 C 6.4867634,4.10871 6.2026499,4.217146 5.9484603,4.351704 L 6.2400275,5.159281 C 6.7110289,4.905096 7.1933582,4.777984 7.6867884,4.777984 c 0.3887625,0 0.6841433,0.100767 0.8860027,0.302642 0.2018367,0.19439 0.3026417,0.448591 0.3026417,0.762591 0,0.19439 -0.044752,0.373927 -0.1344822,0.538386 C 8.6587036,6.546096 8.550264,6.703105 8.4157062,6.852631 8.2811484,7.002156 8.1391824,7.151531 7.9896644,7.301045 7.840139,7.443086 7.6979461,7.600133 7.5633846,7.772073 7.4288268,7.936528 7.316796,8.116064 7.2270656,8.310459 7.1448186,8.504849 7.103658,8.721469 7.103658,8.960706 c 0,0.164493 0.014741,0.321503 0.044752,0.471028 H 8.0231073 C 8.0155473,9.394314 8.0121463,9.353414 8.0121463,9.308553 V 9.185146 c 0,-0.246703 0.048607,-0.467415 0.1457835,-0.661795 C 8.2551058,8.321477 8.3748097,8.138376 8.5168513,7.973898 8.658893,7.801959 8.8156755,7.637503 8.9876373,7.480498 9.1595765,7.323489 9.3166236,7.159033 9.4586652,6.987098 9.6007069,6.815159 9.7204104,6.632032 9.8175869,6.437649 9.9147629,6.235774 9.9633704,6.007672 9.9633704,5.753483 c 0,-0.201875 -0.033639,-0.411067 -0.100805,-0.627879 C 9.8027704,4.901316 9.6904751,4.69929 9.5260197,4.51986 9.3615644,4.340437 9.1410862,4.194653 8.864464,4.082513 8.5953106,3.962885 8.2475165,3.903052 7.8213765,3.903052 Z M 4.8445043,6.000298 0,8.052565 V 8.949631 L 4.8445043,11.001895 5.1360714,10.138265 1.1549595,8.500979 5.1360714,6.86369 Z m 6.3107497,0 -0.291567,0.863392 3.981112,1.637289 -3.981112,1.637286 0.291567,0.86363 L 16,8.949631 V 8.052565 Z M 7.6417985,10.49719 c -0.231772,0 -0.4148803,0.07469 -0.5494532,0.224213 -0.1345578,0.149525 -0.2018367,0.325206 -0.2018367,0.527077 0,0.201874 0.067241,0.377555 0.2018367,0.527081 C 7.2269031,11.925086 7.4100302,12 7.6417985,12 c 0.231772,0 0.4151184,-0.07491 0.5496913,-0.224439 0.1345578,-0.149526 0.2018367,-0.325207 0.2018367,-0.527081 0,-0.201837 -0.067241,-0.377556 -0.2018367,-0.527077 C 8.056932,10.571877 7.8735403,10.49719 7.6417985,10.49719 Z"
     id="text4233"
     inkscape:connector-curvature="0" />
</svg>
